usr/share/icons/big-icons/symbolic/status/network-cellular-signal-ok-rtl-symbolic.svg

<svg width="16px" height="16px" version="1.1" viewBox="0 0 16 16" xmlns="http://www.w3.org/2000/svg">
 <rect transform="scale(-1,1)" x="-15" y="11" width="3" height="3" rx="0" ry="0" fill="#363636"/>
 <rect transform="scale(-1,1)" x="-11" y="8" width="3" height="6" rx="0" ry="0" fill="#363636"/>
 <path d="m7 5v9h-3v-9zm-1 1h-1v7h1z" fill="#363636"/>
 <path d="m3 2v12h-3v-12zm-1 1h-1v10h1z" fill="#363636"/>
</svg>

<svg xmlns="http://www.w3.org/2000/svg" width="16" height="16">
<rect width="3" height="3" x="-15" y="11" fill="#fcfcfc" rx="0" ry="0" transform="scale(-1 1)"/>
<rect width="3" height="6" x="-11" y="8" fill="#fcfcfc" rx="0" ry="0" transform="scale(-1 1)"/>
<path fill="#fcfcfc" d="M7 5v9H4V5zM6 6H5v7h1zM3 2v12H0V2zM2 3H1v10h1z"/>
</svg>
